X: 2
T: Knapsauspolkka
R: polka
O:
B:
D:
Z: John Chambers <jc@trillian.mit.edu>
N:
M: 2/4
L: 1/16
K: Am
|: "Am".e2a2 .e2a2 | "Dm"fgfe d2dc | "E7"B2.e2 B2.e2 | "Am"cdcB ABcd \
|  "Am".e2a2 .e2a2 | "Dm"fgfe d2dc | "E7"B2e2 ^g2eg | "Am"b2a2 a2z2 :|
|: "C"G2c2 c2Bc | e2c2 c2BA | "G7"G2g2 g2^fg | a2g2 g^fg2 \
|  "C"G2c2 c2Bc | e2c2 c2BA | "G7"G2g2 gdBd | "C"c2e2 c2z2 :|


